X: 17421
T: Highland Cathedral
R: strathspey
M: 4/4
K: Gmajor
G2> AB/ AG DG|A2> B2 B4|B2> cd/ cB AG|A2> B2 D4|
E2>F2 GD FG|d2>c2 B4|A2>Bc/ BG DG|A2>G2 G4||
F2> D2 A2 FA|B2> F2 F2>E2|D2 D/E/F E4|F2 F/G/A E4|
F2> D2 A2 FA|B2> F2 F2>E2|D2 D/E/F E2>D2|D8||

